src/lib/packages/icons/src/assets/line/comment-lock.svg

<svg width="24" height="24" viewBox="0 0 24 24" fill="none" xmlns="http://www.w3.org/2000/svg">
<path d="M12 3.25C6.26 3.25 2.25 6.84898 2.25 12.001C2.25 14.08 2.90189 15.947 4.13989 17.426C3.98989 17.996 3.61706 18.8291 2.68506 19.5811C2.29406 19.9131 2.15295 20.442 2.32495 20.928C2.49595 21.411 2.93408 21.731 3.43408 21.743C3.57208 21.748 3.71291 21.75 3.85791 21.75C5.36491 21.75 7.24293 21.4599 8.60693 20.2729C9.67493 20.591 10.814 20.752 12.001 20.752C17.741 20.752 21.751 17.153 21.751 12.001C21.751 6.84898 17.74 3.25 12 3.25ZM12 19.2531C10.815 19.2531 9.69003 19.072 8.65503 18.714C8.37503 18.617 8.06404 18.694 7.86304 18.91C6.90304 19.934 5.34311 20.202 4.18311 20.243C4.99511 19.413 5.52292 18.399 5.69092 17.328C5.72592 17.101 5.65598 16.871 5.50098 16.703C4.35498 15.463 3.75 13.837 3.75 12.001C3.75 7.73098 7.143 4.75 12 4.75C16.857 4.75 20.25 7.73198 20.25 12.001C20.25 16.27 16.857 19.2531 12 19.2531ZM14.5 10.871V9.75C14.5 8.372 13.379 7.25 12 7.25C10.621 7.25 9.5 8.372 9.5 9.75V10.871C8.707 11.129 8.25 11.802 8.25 12.786V14.715C8.25 15.989 9.01089 16.751 10.2859 16.751H13.7141C14.9891 16.751 15.75 15.99 15.75 14.715V12.786C15.75 11.802 15.293 11.129 14.5 10.871ZM12 8.75C12.552 8.75 13 9.199 13 9.75V10.75H11V9.75C11 9.199 11.448 8.75 12 8.75ZM14.25 14.714C14.25 15.154 14.1551 15.25 13.7141 15.25H10.2859C9.84489 15.25 9.75 15.155 9.75 14.714V12.785C9.75 12.345 9.84489 12.249 10.2859 12.249H13.7141C14.1551 12.249 14.25 12.344 14.25 12.785V14.714Z" fill="currentColor"/>
</svg>

<svg xmlns="http://www.w3.org/2000/svg" width="24" height="24" fill="none"><path fill="currentColor" d="M12 3.25c-5.74 0-9.75 3.599-9.75 8.751 0 2.079.652 3.946 1.89 5.425-.15.57-.523 1.403-1.455 2.155a1.22 1.22 0 0 0-.36 1.347c.17.483.61.803 1.11.815.137.005.278.007.423.007 1.507 0 3.385-.29 4.749-1.477a11.87 11.87 0 0 0 3.394.479c5.74 0 9.75-3.599 9.75-8.751 0-5.152-4.011-8.751-9.751-8.751Zm0 16.003c-1.185 0-2.31-.181-3.345-.539a.748.748 0 0 0-.792.196c-.96 1.024-2.52 1.292-3.68 1.333.812-.83 1.34-1.844 1.508-2.915a.752.752 0 0 0-.19-.625c-1.146-1.24-1.751-2.866-1.751-4.702 0-4.27 3.393-7.251 8.25-7.251s8.25 2.982 8.25 7.251-3.393 7.252-8.25 7.252Zm2.5-8.382V9.75c0-1.378-1.121-2.5-2.5-2.5a2.503 2.503 0 0 0-2.5 2.5v1.121c-.793.258-1.25.931-1.25 1.915v1.929c0 1.274.76 2.036 2.036 2.036h3.428c1.275 0 2.036-.761 2.036-2.036v-1.929c0-.984-.457-1.657-1.25-1.915ZM12 8.75c.552 0 1 .449 1 1v1h-2v-1c0-.551.448-1 1-1Zm2.25 5.964c0 .44-.095.536-.536.536h-3.428c-.441 0-.536-.095-.536-.536v-1.929c0-.44.095-.536.536-.536h3.428c.441 0 .536.095.536.536v1.929Z"/></svg>
